X:110
T:Floating Crowbar
Z: id:dc-reel-102
M:C
L:1/8
K:D Mixolydian
dB|ADFD ADFD|ADFD A2GF|EGG2 AGG2|EDCD EFGB|!
ADFD ADFD|ADFD G2FG|AGAB cded|cAGE D2:|!
dB|Add^c d2cd|eaag egdB|A3B AFF2|A2GF EFGB|!
Add^c d2cd|eaag egg2|agg2 eged|cAGE D2:|!

